32x32/mimetypes/text-x-bibtex.svg

<svg xmlns="http://www.w3.org/2000/svg" width="32" height="32" version="1.1">
 <path style="opacity:0.2" d="M 6.375,3 C 5.61325,3 5,3.6244 5,4.4 V 29.6 C 5,30.37504 5.61325,31 6.375,31 h 19.25 C 26.3862,31 27,30.37504 27,29.6 V 12 L 20,10 18,3 Z"/>
 <path style="fill:#f4f4f7" d="M 6.375,2 C 5.61325,2 5,2.6244 5,3.4 V 28.6 C 5,29.37504 5.61325,30 6.375,30 h 19.25 C 26.3862,30 27,29.37504 27,28.6 V 11 L 20,9 18,2 Z"/>
 <path style="opacity:0.2" d="M 27,12 18,3 v 7.59375 C 18,11.373375 18.62775,12 19.40625,12 Z"/>
 <path style="fill:#fafafa" d="M 27,11 18,2 V 9.59375 C 18,10.373375 18.62775,11 19.40625,11 Z"/>
 <path style="opacity:0.2;fill:#f4f4f7" d="M 6.375,2 C 5.61325,2 5,2.6247906 5,3.4003906 v 1 C 5,3.6247906 5.61325,3 6.375,3 H 18 V 2 Z"/>
 <path style="fill:#6b6cd0" d="m 7,17 v 1 h 2 v 6 h 1 v -6 h 2 v -1 z"/>
 <path style="fill:#6b6cd0" d="m 13,18 v 7 h 5 v -1 h -4 v -2 h 4 v -1 h -4 v -2 h 4 v -1 z"/>
 <path style="fill:#6b6cd0" d="M 20 17 L 20 17.035156 L 21.927734 20.517578 L 20 24 L 21.146484 24 L 22.5 21.552734 L 23.853516 24 L 25 24 L 23.072266 20.517578 L 25 17.035156 L 25 17 L 23.873047 17 L 22.5 19.482422 L 21.126953 17 L 20 17 z"/>
</svg>

<svg xmlns="http://www.w3.org/2000/svg" width="32" height="32"><path style="opacity:.2" d="M6.375 3C5.613 3 5 3.624 5 4.4v25.2c0 .775.613 1.4 1.375 1.4h19.25c.761 0 1.375-.625 1.375-1.4V12l-7-2-2-7z"/><path style="fill:#f4f4f7" d="M6.375 2C5.613 2 5 2.624 5 3.4v25.2c0 .775.613 1.4 1.375 1.4h19.25c.761 0 1.375-.625 1.375-1.4V11l-7-2-2-7z"/><path style="opacity:.2" d="m27 12-9-9v7.594c0 .78.628 1.406 1.406 1.406z"/><path style="fill:#fafafa" d="m27 11-9-9v7.594c0 .78.628 1.406 1.406 1.406z"/><path style="opacity:.2;fill:#f4f4f7" d="M6.375 2C5.613 2 5 2.625 5 3.4v1C5 3.625 5.613 3 6.375 3H18V2z"/><path style="fill:#6b6cd0" d="M7 17v1h2v6h1v-6h2v-1zM13 18v7h5v-1h-4v-2h4v-1h-4v-2h4v-1zM20 17v.035l1.928 3.483L20 24h1.146l1.354-2.447L23.854 24H25l-1.928-3.482L25 17.035V17h-1.127L22.5 19.482 21.127 17H20z"/></svg>
